icons/key-2-fill.svg

<svg viewBox="0 0 24 24" fill="currentColor" xmlns="http://www.w3.org/2000/svg"><path d="M10.313 11.5656L18.253 3.62561L20.3744 5.74693L18.9602 7.16114L21.0815 9.28246L17.5459 12.818L15.4246 10.6967L12.4343 13.687C13.4182 15.5719 13.1186 17.9524 11.5355 19.5355C9.58291 21.4881 6.41709 21.4881 4.46447 19.5355C2.51184 17.5829 2.51184 14.4171 4.46447 12.4644C6.04755 10.8814 8.42809 10.5818 10.313 11.5656ZM9.41421 17.4142C10.1953 16.6331 10.1953 15.3668 9.41421 14.5858C8.63316 13.8047 7.36684 13.8047 6.58579 14.5858C5.80474 15.3668 5.80474 16.6331 6.58579 17.4142C7.36684 18.1952 8.63316 18.1952 9.41421 17.4142Z"/></svg>

<svg xmlns="http://www.w3.org/2000/svg" viewBox="0 0 24 24">
    <g>
        <path fill="none" d="M0 0h24v24H0z"/>
        <path d="M10.313 11.566l7.94-7.94 2.121 2.121-1.414 1.414 2.121 2.121-3.535 3.536-2.121-2.121-2.99 2.99a5.002 5.002 0 0 1-7.97 5.849 5 5 0 0 1 5.848-7.97zm-.899 5.848a2 2 0 1 0-2.828-2.828 2 2 0 0 0 2.828 2.828z"/>
    </g>
</svg>
